X:1
T:[ID 9-25]
T:[ID 9-25]
T:Bezeichnung standardisiert: Allegro Allegro
T:Urheber unbekannt Datum in der hier transkribierten schriftlichen Quelle: 1796
C:Urheber unbekannt
C:Datum in der hier transkribierten schriftlichen Quelle: 1796
L:1/8
M:6/8
K:D
V:1 treble 
V:1
 dDD DDD | D/d/c/B/A/G/ FD z |"^O)" f/e/d/e/f/a/ e/d/c/d/e/a/ | d/c/B/c/d/e/ c2 e | %4
"^O)" f/e/d/e/f/a/ e/d/c/d/e/a/ | d/c/B/c/d/e/ c2 e | f/g/aa a/g/f/g/a | e/f/gg g/f/e/f/g | %8
 F/G/AA A/G/F/G/A | E/F/GG G/F/E/F/G | f/d/f/a/f/d/ e/c/e/a/e/c/ | d/B/^G/E/ e/d/ c2 A | eee eee | %13
 e/a/^g/f/e/d/ c/e/d/c/B/A/ | BA^G A2 z :: aAA AAA | A/a/^g/f/e/d/ cA z | %17
 e/d/c/d/e/c/ d/c/B/c/d/B/ | c/B/A/B/c/e/ B^GE | AA/^G/A/B/ GBB | cc/B/c/d/ Bee | %21
"^O)" a/e/e/e/e/e/ b/e/e/e/e/e/ | c'/e/e/e/e/e/ b/e/e/e/e/e/ |"^O)" a/e/e/e/e/e/ b/e/e/e/e/e/ | %24
 c'/e/e/e/e/e/ b/e/e/e/e/e/ | d/c/B/A/^G/F/ Ee/d/c/B/ | cA^G A>AB/c/ | d/e/fd e/f/ge | agf e2 z | %29
 e/f/ge ed/c/d | e/f/gf e2 z A | E/F/GF ED/C/D | E/F/GF E2 z A | B/G/c/A/d/B/ e/c/f/d/g/e/ | %34
 adc dec | dDD DDD | DFA D2 z :| %37

